lib/svg/file-code.svg

<svg xmlns="http://www.w3.org/2000/svg" width="12" height="16" viewBox="0 0 12 16"><path d="M8.5 1H1c-.55 0-1 .45-1 1v12c0 .55.45 1 1 1h10c.55 0 1-.45 1-1V4.5L8.5 1zM11 14H1V2h7l3 3v9zM5 6.98L3.5 8.5 5 10l-.5 1L2 8.5 4.5 6l.5.98zM7.5 6L10 8.5 7.5 11l-.5-.98L8.5 8.5 7 7l.5-1z"/></svg>

<?xml version="1.0" encoding="UTF-8" standalone="no"?>
<svg width="12px" height="16px" viewBox="0 0 12 16" version="1.1" xmlns="http://www.w3.org/2000/svg" xmlns:xlink="http://www.w3.org/1999/xlink">
    <!-- Generator: Sketch 3.8.3 (29802) - http://www.bohemiancoding.com/sketch -->
    <title>file-code</title>
    <desc>Created with Sketch.</desc>
    <defs></defs>
    <g id="Octicons" stroke="none" stroke-width="1" fill="none" fill-rule="evenodd">
        <g id="file-code" fill="#000000">
            <path d="M8.5,1 L1,1 C0.45,1 0,1.45 0,2 L0,14 C0,14.55 0.45,15 1,15 L11,15 C11.55,15 12,14.55 12,14 L12,4.5 L8.5,1 L8.5,1 Z M11,14 L1,14 L1,2 L8,2 L11,5 L11,14 L11,14 Z M5,6.98 L3.5,8.5 L5,10 L4.5,11 L2,8.5 L4.5,6 L5,6.98 L5,6.98 Z M7.5,6 L10,8.5 L7.5,11 L7,10.02 L8.5,8.5 L7,7 L7.5,6 L7.5,6 Z" id="Shape"></path>
        </g>
    </g>
</svg>
